images/standarts/standart-18.svg

<svg width="25" height="24" viewBox="0 0 25 24" fill="none" xmlns="http://www.w3.org/2000/svg">
<g clip-path="url(#clip0_68_4581)">
<path fill-rule="evenodd" clip-rule="evenodd" d="M5.5 5H19.5V12H16.5L21.5 17V3H3.5V5H5.5ZM21.5 19H5.5V12H8.5L3.5 7V21H21.5V19Z" fill="white"/>
</g>
<defs>
<clipPath id="clip0_68_4581">
<rect width="24" height="24" fill="white" transform="translate(0.5)"/>
</clipPath>
</defs>
</svg>

<svg width="25" height="24" fill="none" xmlns="http://www.w3.org/2000/svg"><g clip-path="url(#clip0_68_4581)"><path fill-rule="evenodd" clip-rule="evenodd" d="M5.5 5h14v7h-3l5 5V3h-18v2h2zm16 14h-16v-7h3l-5-5v14h18v-2z" fill="#fff"/></g><defs><clipPath id="clip0_68_4581"><path fill="#fff" transform="translate(.5)" d="M0 0h24v24H0z"/></clipPath></defs></svg>
